X:13320
T:Polka fr Finland
S:FJ
R:Polka
O:Finland
M:2/4
L:1/8
K:Bm
B>c Bc|dB Bd|cA Ac|d/c/B/A/ BF|\
B>c Bc|dB B2|e2 dc|BA B2:|*
|:f>d df|ed cd|ef/e/ dc|Bc dB|\
f>d df|ec cd|ef/e/ dc|BA B2:|
